X:1
T:Fifty Flamingoes
M:4/4
L:1/8
R:
K:D
| B,zB,z B,CDF | EzEz EFGB | AzAz AGFE | FzFz FEDC |
| B,zB,z B,CDF | EzEz EFGB | AzAz AGFE |1 FzFz FEDC :| 2 FzFz FGFE |
| Dd /c/B/A efd2 | G2 /G/A/B A2 /A/F/E | Dd /c/B/A efd2 | G2 /G/A/B A2 /A/F/E |
| Dd /c/B/A efd2 | G2 /G/A/B A2 /A/F/E | Dd /c/B/A efd2 |1 G2 /G/A/B A2 /A/F/E :|2 G2 /G/A/B A2 /F/E/D/A, |
